X:1
T:MfCH 05.07
M:4/4
L:1/8
K:G
Bgfg e2f2 | dbab f2g2 | afde fdBc | dBFB FBc2 | 
GcBf cadd'| gfed fedc | bagf agfe | f2B2 f4 | 
e2G2 e4   | dFGB eGAc | fABd gBce | d4   z4 | 
gfB2 edG2 | cBE2 FGD2 | ECDA G2G2 | GdBG AecA | 
BfdB cgec | dafd ebge | fc'af gd'bg | g4 z4 | 
dcGc B4   | AGDE F4   | G2z2 GABd | z2cd egz2 | 
gabd' f'e'f'a' | g'4 z4 | g'e'f'd' e'c'd'b | c'bab g4|] 

